styles/2/Numix/256x256/actions/custom-add-folders-to-archive.svg

<?xml version="1.0" encoding="UTF-8" standalone="no"?>
<svg
   xmlns:dc="http://purl.org/dc/elements/1.1/"
   xmlns:cc="http://creativecommons.org/ns#"
   xmlns:rdf="http://www.w3.org/1999/02/22-rdf-syntax-ns#"
   xmlns:svg="http://www.w3.org/2000/svg"
   xmlns="http://www.w3.org/2000/svg"
   xmlns:sodipodi="http://sodipodi.sourceforge.net/DTD/sodipodi-0.dtd"
   xmlns:inkscape="http://www.inkscape.org/namespaces/inkscape"
   width="256"
   height="256"
   viewBox="0 0 256 256"
   id="svg2"
   version="1.1"
   inkscape:version="0.91 r"
   sodipodi:docname="custom-add-folders-to-archive.svg">
  <metadata
     id="metadata20">
    <rdf:RDF>
      <cc:Work
         rdf:about="">
        <dc:format>image/svg+xml</dc:format>
        <dc:type
           rdf:resource="http://purl.org/dc/dcmitype/StillImage" />
      </cc:Work>
    </rdf:RDF>
  </metadata>
  <defs
     id="defs18" />
  <sodipodi:namedview
     pagecolor="#ffffff"
     bordercolor="#666666"
     borderopacity="1"
     objecttolerance="10"
     gridtolerance="10"
     guidetolerance="10"
     inkscape:pageopacity="0"
     inkscape:pageshadow="2"
     inkscape:window-width="1366"
     inkscape:window-height="747"
     id="namedview16"
     showgrid="false"
     inkscape:zoom="0.921875"
     inkscape:cx="132.47595"
     inkscape:cy="127.47765"
     inkscape:window-x="0"
     inkscape:window-y="21"
     inkscape:window-maximized="1"
     inkscape:current-layer="svg2">
    <inkscape:grid
       type="xygrid"
       id="grid3006" />
  </sodipodi:namedview>
  <path
     style="fill:replacecolour1;fill-opacity:1;stroke:none"
     d="m 36,96 c -5.85566,0 -12,5.86641 -12,12 l 0,9 -12,0 c -5.8804,0 -12,5.98132 -12,12 l 0,115 c 0,8 4,12 12,12 l 195,0 c 6.27046,0 12,-5.43338 12,-12 l 0,-100 c 0,-6.01972 -5.82016,-12 -12,-12 l -12,0 0,-24 c 0,-5.84462 -5.81288,-12 -12,-12 z"
     id="path6-6-1"
     inkscape:connector-curvature="0"
     sodipodi:nodetypes="ssccssssscccsss" />
  <path
     style="fill:#000000;fill-opacity:0.10196078;stroke:none"
     d="m 36,96 c -0.365979,0 -0.727086,0.01804 -1.09375,0.0625 -0.733327,0.08893 -1.470281,0.280868 -2.1875,0.53125 -0.717219,0.250382 -1.417767,0.578787 -2.09375,0.96875 -0.337991,0.194982 -0.67703,0.399224 -1,0.625 -0.652135,0.455882 -1.240939,0.966644 -1.8125,1.53125 -0.277637,0.274259 -0.558407,0.54778 -0.8125,0.84375 -0.005,0.006 0.005,0.0255 0,0.0312 -0.253277,0.29604 -0.523229,0.59117 -0.75,0.90625 -0.0047,0.007 0.0047,0.0247 0,0.0312 -0.225796,0.31498 -0.459886,0.63741 -0.65625,0.96875 -0.0044,0.007 0.0044,0.0239 0,0.0312 -0.195186,0.33099 -0.368365,0.65533 -0.53125,1 -0.004,0.008 0.004,0.0228 0,0.0312 -0.162018,0.34491 -0.342012,0.70652 -0.46875,1.0625 -0.0032,0.009 0.0031,0.0225 0,0.0312 -0.125449,0.35541 -0.225147,0.69866 -0.3125,1.0625 -0.0024,0.01 0.0024,0.0215 0,0.0312 -0.08623,0.3639 -0.173561,0.72402 -0.21875,1.09375 -0.0013,0.0101 0.0012,0.0212 0,0.0312 C 24.018497,107.24478 24,107.62698 24,108 l 0,9 -12,0 c -5.8804,0 -12,5.98132 -12,12 l 0,115 c 0,8 4,12 12,12 l 195,0 c 0.78381,0 1.55573,-0.0886 2.3125,-0.25 C 214.60989,254.62024 219,249.74579 219,244 l 0,-100 c 0,-0.37623 -0.0172,-0.75053 -0.0625,-1.125 -0.53192,-4.513 -4.17846,-8.77306 -8.59375,-10.28125 -0.35247,-0.12375 -0.70295,-0.22612 -1.0625,-0.3125 -0.01,-0.002 -0.0212,0.002 -0.0312,0 -0.35958,-0.0853 -0.72985,-0.17355 -1.09375,-0.21875 -0.0103,-0.001 -0.0209,0.001 -0.0312,0 C 207.75101,132.01723 207.3756,132 207,132 l -12,0 0,-24 c 0,-5.84462 -5.81288,-12 -12,-12 L 36,96 Z"
     id="path3029"
     inkscape:connector-curvature="0" />
  <path
     sodipodi:nodetypes="sscsssssssscsssssscssssssss"
     inkscape:connector-curvature="0"
     style="stroke:none"
     d="m 36,96 c -5.85566,0 -12,5.9415 -12,12 l 0,9 -12,0 c -5.8804,0 -12,5.98132 -12,12 l 0,115 c 0,8 4,12 12,12 l 195,0 c 6.27046,0 12,-5.43338 12,-12 l 0,-100 c 0,-6.01972 -5.99045,-12 -12,-12 l -12,0 0,-24 c 0,-5.84462 -5.81288,-12 -12,-12 z m -24,29 114,0 c 2.3607,0 4.80316,2.23305 4,4 l 0,11 77,0 c 2.0222,0 4,2.03496 4,4 l 0,100 c 0,2.08516 -1.91506,4 -4,4 l -195,0 c -1.85718,0 -4,-1.58538 -4,-4 L 8,129 c 0,-1.96962 2.06612,-4 4,-4 z"
     id="path3778-8" />
  <path
     style="fill-opacity:1;stroke:none"
     d="M 73,-2 C 67.14434,-2 61,3.866406 61,10 l 0,9 -12,0 c -5.8804,0 -12,5.98132 -12,12 l 0,115 c 0,8 4,12 12,12 l 195,0 c 6.27046,0 12,-5.43338 12,-12 l 0,-100 c 0,-6.01972 -5.82016,-12 -12,-12 l -12,0 0,-24 c 0,-5.84462 -5.81288,-12 -12,-12 z"
     id="path6-6"
     inkscape:connector-curvature="0"
     sodipodi:nodetypes="ssccssssscccsss" />
  <path
     sodipodi:nodetypes="sscsssssssscsssssscssssssss"
     inkscape:connector-curvature="0"
     style="fill:replacecolour3;fill-opacity:1.;stroke:none"
     d="M 73,0 C 67.14434,0 61,5.941497 61,12 l 0,9 -12,0 c -5.8804,0 -12,5.98132 -12,12 l 0,115 c 0,8 4,12 12,12 l 195,0 c 6.27046,0 12,-5.43338 12,-12 l 0,-100 c 0,-6.01972 -5.99045,-12 -12,-12 l -12,0 0,-24 C 232,6.15538 226.18712,0 220,0 z m -24,29 114,0 c 2.3607,0 4.80316,2.233048 4,4 l 0,11 77,0 c 2.0222,0 4,2.03496 4,4 l 0,100 c 0,2.08516 -1.91506,4 -4,4 l -195,0 c -1.85718,0 -4,-1.58538 -4,-4 L 45,33 c 0,-1.96962 2.06612,-4 4,-4 z"
     id="path3778" />
  <path
     style="fill:#859900"
     d="M 256 160 L 208 160 L 208 112 L 160 112 L 160 160 L 112 160 L 112 208 L 160 208 L 160 256 L 208 256 L 208 208 L 256 208 Z "
     id="path14" />
</svg>

<?xml version="1.0" encoding="UTF-8" standalone="no"?>
<svg
   xmlns:dc="http://purl.org/dc/elements/1.1/"
   xmlns:cc="http://creativecommons.org/ns#"
   xmlns:rdf="http://www.w3.org/1999/02/22-rdf-syntax-ns#"
   xmlns:svg="http://www.w3.org/2000/svg"
   xmlns="http://www.w3.org/2000/svg"
   xmlns:sodipodi="http://sodipodi.sourceforge.net/DTD/sodipodi-0.dtd"
   xmlns:inkscape="http://www.inkscape.org/namespaces/inkscape"
   width="256"
   height="256"
   viewBox="0 0 256 256"
   id="svg2"
   version="1.1"
   inkscape:version="0.48.5 r10040"
   sodipodi:docname="add-folders-to-archive.svg">
  <metadata
     id="metadata20">
    <rdf:RDF>
      <cc:Work
         rdf:about="">
        <dc:format>image/svg+xml</dc:format>
        <dc:type
           rdf:resource="http://purl.org/dc/dcmitype/StillImage" />
      </cc:Work>
    </rdf:RDF>
  </metadata>
  <defs
     id="defs18" />
  <sodipodi:namedview
     pagecolor="#ffffff"
     bordercolor="#666666"
     borderopacity="1"
     objecttolerance="10"
     gridtolerance="10"
     guidetolerance="10"
     inkscape:pageopacity="0"
     inkscape:pageshadow="2"
     inkscape:window-width="1280"
     inkscape:window-height="969"
     id="namedview16"
     showgrid="false"
     inkscape:zoom="0.4609375"
     inkscape:cx="-388.3392"
     inkscape:cy="-92.985833"
     inkscape:window-x="0"
     inkscape:window-y="0"
     inkscape:window-maximized="1"
     inkscape:current-layer="svg2">
    <inkscape:grid
       type="xygrid"
       id="grid3006" />
  </sodipodi:namedview>
  <path
     style="fill:replacecolour1;fill-opacity:1;stroke:none"
     d="m 36,96 c -5.85566,0 -12,5.86641 -12,12 l 0,9 -12,0 c -5.8804,0 -12,5.98132 -12,12 l 0,115 c 0,8 4,12 12,12 l 195,0 c 6.27046,0 12,-5.43338 12,-12 l 0,-100 c 0,-6.01972 -5.82016,-12 -12,-12 l -12,0 0,-24 c 0,-5.84462 -5.81288,-12 -12,-12 z"
     id="path6-6-1"
     inkscape:connector-curvature="0"
     sodipodi:nodetypes="ssccssssscccsss" />
  <path
     style="fill:replacecolour3;fill-opacity:0.10196079;stroke:none"
     d="M 36 96 C 35.634021 96 35.272914 96.018036 34.90625 96.0625 C 34.172923 96.151429 33.435969 96.343368 32.71875 96.59375 C 32.001531 96.844132 31.300983 97.172537 30.625 97.5625 C 30.287009 97.757482 29.94797 97.961724 29.625 98.1875 C 28.972865 98.643382 28.384061 99.154144 27.8125 99.71875 C 27.534863 99.993009 27.254093 100.26653 27 100.5625 C 26.995022 100.5683 27.004968 100.58795 27 100.59375 C 26.746723 100.88979 26.476771 101.18492 26.25 101.5 C 26.245283 101.50654 26.254705 101.52471 26.25 101.53125 C 26.024204 101.84623 25.790114 102.16866 25.59375 102.5 C 25.58935 102.50739 25.598135 102.52386 25.59375 102.53125 C 25.398564 102.86224 25.225385 103.18658 25.0625 103.53125 C 25.058483 103.53968 25.066496 103.55406 25.0625 103.5625 C 24.900482 103.90741 24.720488 104.26902 24.59375 104.625 C 24.590593 104.63376 24.596885 104.64749 24.59375 104.65625 C 24.468301 105.01166 24.368603 105.35491 24.28125 105.71875 C 24.278851 105.72855 24.28362 105.7402 24.28125 105.75 C 24.195016 106.1139 24.107689 106.47402 24.0625 106.84375 C 24.061225 106.85382 24.063743 106.86493 24.0625 106.875 C 24.018497 107.24478 24 107.62698 24 108 L 24 117 L 12 117 C 6.1196 117 0 122.98132 0 129 L 0 244 C 0 252 4 256 12 256 L 207 256 C 207.78381 256 208.55573 255.91139 209.3125 255.75 C 214.60989 254.62024 219 249.74579 219 244 L 219 144 C 219 143.62377 218.98284 143.24947 218.9375 142.875 C 218.40558 138.362 214.75904 134.10194 210.34375 132.59375 C 209.99128 132.47 209.6408 132.36763 209.28125 132.28125 C 209.27121 132.2789 209.26005 132.28357 209.25 132.28125 C 208.89042 132.19596 208.52015 132.1077 208.15625 132.0625 C 208.14595 132.06128 208.1353 132.06369 208.125 132.0625 C 207.75101 132.01723 207.3756 132 207 132 L 195 132 L 195 108 C 195 102.15538 189.18712 96 183 96 L 36 96 z "
     id="path3029" />
  <path
     sodipodi:nodetypes="sscsssssssscsssssscssssssss"
     inkscape:connector-curvature="0"
     style="fill:replacecolour3;fill-opacity:1.;stroke:none"
     d="m 36,96 c -5.85566,0 -12,5.9415 -12,12 l 0,9 -12,0 c -5.8804,0 -12,5.98132 -12,12 l 0,115 c 0,8 4,12 12,12 l 195,0 c 6.27046,0 12,-5.43338 12,-12 l 0,-100 c 0,-6.01972 -5.99045,-12 -12,-12 l -12,0 0,-24 c 0,-5.84462 -5.81288,-12 -12,-12 z m -24,29 114,0 c 2.3607,0 4.80316,2.23305 4,4 l 0,11 77,0 c 2.0222,0 4,2.03496 4,4 l 0,100 c 0,2.08516 -1.91506,4 -4,4 l -195,0 c -1.85718,0 -4,-1.58538 -4,-4 L 8,129 c 0,-1.96962 2.06612,-4 4,-4 z"
     id="path3778-8" />
  <path
     style="fill:replacecolour1;fill-opacity:1;stroke:none"
     d="M 73,0 C 67.14434,0 61,5.8664059 61,12 l 0,9 -12,0 c -5.8804,0 -12,5.98132 -12,12 l 0,115 c 0,8 4,12 12,12 l 195,0 c 6.27046,0 12,-5.43338 12,-12 l 0,-100 c 0,-6.01972 -5.82016,-12 -12,-12 l -12,0 0,-24 C 232,6.15538 226.18712,0 220,0 z"
     id="path6-6"
     inkscape:connector-curvature="0"
     sodipodi:nodetypes="ssccssssscccsss" />
  <path
     sodipodi:nodetypes="sscsssssssscsssssscssssssss"
     inkscape:connector-curvature="0"
     style="fill:replacecolour3;fill-opacity:1.;stroke:none"
     d="M 73,0 C 67.14434,0 61,5.941497 61,12 l 0,9 -12,0 c -5.8804,0 -12,5.98132 -12,12 l 0,115 c 0,8 4,12 12,12 l 195,0 c 6.27046,0 12,-5.43338 12,-12 l 0,-100 c 0,-6.01972 -5.99045,-12 -12,-12 l -12,0 0,-24 C 232,6.15538 226.18712,0 220,0 z m -24,29 114,0 c 2.3607,0 4.80316,2.233048 4,4 l 0,11 77,0 c 2.0222,0 4,2.03496 4,4 l 0,100 c 0,2.08516 -1.91506,4 -4,4 l -195,0 c -1.85718,0 -4,-1.58538 -4,-4 L 45,33 c 0,-1.96962 2.06612,-4 4,-4 z"
     id="path3778" />
  <path
     style="fill:#859900"
     d="M 256 160 L 208 160 L 208 112 L 160 112 L 160 160 L 112 160 L 112 208 L 160 208 L 160 256 L 208 256 L 208 208 L 256 208 Z "
     id="path14" />
</svg>
